apps/16/dictionary.svg

<?xml version="1.0" encoding="UTF-8"?>
<!-- Created with Inkscape (http://www.inkscape.org/) -->
<svg width="16" height="16" version="1.1" xmlns="http://www.w3.org/2000/svg" xmlns:cc="http://creativecommons.org/ns#" xmlns:dc="http://purl.org/dc/elements/1.1/" xmlns:rdf="http://www.w3.org/1999/02/22-rdf-syntax-ns#" xmlns:xlink="http://www.w3.org/1999/xlink">
	<defs>
		<radialGradient id="a" cx="307.57" cy="-95.861" r="7.254" gradientTransform="matrix(1.179 0 0 1.141 -9751.2 5158.4)" gradientUnits="userSpaceOnUse">
			<stop stop-color="#213851" stop-opacity=".9059" offset="0"/>
			<stop stop-color="#27303a" stop-opacity="0" offset="1"/>
		</radialGradient>
		<radialGradient id="b" cx="7799.3" cy="-3926.4" r="6.5" gradientTransform="matrix(7.5787e-6 2.2666 -2.4556 0 -9633.5 -17676)" gradientUnits="userSpaceOnUse">
			<stop stop-color="#ffffff" stop-opacity=".74858" offset="0"/>
			<stop stop-color="#ffffff" stop-opacity=".60511" offset="1"/>
		</radialGradient>
	</defs>
	<metadata>
		<rdf:RDF>
			<cc:Work rdf:about="">
				<dc:format>image/svg+xml</dc:format>
				<dc:type rdf:resource="http://purl.org/dc/dcmitype/StillImage"/>
				<dc:title/>
			</cc:Work>
		</rdf:RDF>
	</metadata>
	<g transform="translate(9398.6 -5036)">
		<g transform="matrix(.034547 0 0 .034547 -9257.2 5031.5)"></g>
		<path d="m-9396.6 5037v14h12v-12h-10v-1h10v-1zm5.3459 4h1.3445l2.0348 5.7411 0.1817 0.3634 0.1453 0.218 0.2181 0.109 0.218 0.036h0.1817v0.5087h-3.234v-0.5087h0.3634l0.1817-0.036 0.109-0.073 0.109-0.109 0.036-0.1816-0.036-0.2181-0.036-0.1816-0.3634-0.9811h-2.3619l-0.2906 0.8357-0.073 0.2907-0.036 0.2544 0.036 0.1816 0.109 0.109 0.109 0.073 0.1817 0.036h0.3997v0.5087h-2.5436v-0.5087h0.1454l0.218-0.036 0.1817-0.109 0.1817-0.218 0.1816-0.3634zm0.3271 1.0174-0.073 0.327-0.1453 0.3634-0.1091 0.3634-0.1453 0.3633-0.5814 1.6352h1.9985l-0.5087-1.5988-0.109-0.3271-0.109-0.3997-0.109-0.3633z" color="#000000" fill="#090d11" fill-opacity=".76621" style="font-variant-east_asian:normal;paint-order:normal"/>
		<path d="m-9396.6 5037v14h12v-12h-10v-1h10v-1zm5.3459 4h1.3445l2.0348 5.7411 0.1817 0.3634 0.1453 0.218 0.2181 0.109 0.218 0.036h0.1817v0.5087h-3.234v-0.5087h0.3634l0.1817-0.036 0.109-0.073 0.109-0.109 0.036-0.1816-0.036-0.2181-0.036-0.1816-0.3634-0.9811h-2.3619l-0.2906 0.8357-0.073 0.2907-0.036 0.2544 0.036 0.1816 0.109 0.109 0.109 0.073 0.1817 0.036h0.3997v0.5087h-2.5436v-0.5087h0.1454l0.218-0.036 0.1817-0.109 0.1817-0.218 0.1816-0.3634zm0.3271 1.0174-0.073 0.327-0.1453 0.3634-0.1091 0.3634-0.1453 0.3633-0.5814 1.6352h1.9985l-0.5087-1.5988-0.109-0.3271-0.109-0.3997-0.109-0.3633z" color="#000000" fill="url(#a)" fill-opacity=".7533" style="font-variant-east_asian:normal;paint-order:normal"/>
		<path transform="translate(-9398.6 5036)" d="m1 0v1 14 1h1 12 1v-1-12-1-1-1h-1-12-1zm1 1h12v1h-10v1h10v12h-12v-14zm5.3438 4-2.0938 5.75-0.1875 0.34375-0.1875 0.21875-0.1875 0.125-0.21875 0.03125h-0.125v0.5h2.5312v-0.5h-0.40625l-0.1875-0.03125-0.09375-0.09375-0.125-0.09375-0.03125-0.1875 0.03125-0.25 0.09375-0.28125 0.28125-0.84375h2.375l0.34375 0.96875 0.03125 0.1875 0.0625 0.21875-0.0625 0.1875-0.09375 0.09375-0.125 0.09375-0.15625 0.03125h-0.375v0.5h3.2188v-0.5h-0.15625l-0.21875-0.03125-0.21875-0.125-0.15625-0.21875-0.1875-0.34375-2.0312-5.75h-1.3438zm0.34375 1.0312 0.09375 0.34375 0.125 0.375 0.09375 0.40625 0.09375 0.3125 0.53125 1.5938h-2l0.5625-1.625 0.15625-0.375 0.125-0.34375 0.125-0.375 0.09375-0.3125z" color="#000000" fill="url(#b)" style="block-progression:tb;font-variant-east_asian:normal;paint-order:normal;text-indent:0;text-transform:none"/>
	</g>
</svg>

<?xml version="1.0" encoding="UTF-8" standalone="no"?>
<!-- Created with Inkscape (http://www.inkscape.org/) -->

<svg
   xmlns:dc="http://purl.org/dc/elements/1.1/"
   xmlns:cc="http://creativecommons.org/ns#"
   xmlns:rdf="http://www.w3.org/1999/02/22-rdf-syntax-ns#"
   xmlns:svg="http://www.w3.org/2000/svg"
   xmlns="http://www.w3.org/2000/svg"
   xmlns:sodipodi="http://sodipodi.sourceforge.net/DTD/sodipodi-0.dtd"
   xmlns:inkscape="http://www.inkscape.org/namespaces/inkscape"
   width="15.999998"
   height="15.999998"
   id="svg13094"
   version="1.1"
   inkscape:version="0.48.3.1 r9886"
   sodipodi:docname="dictionary.svg">
  <sodipodi:namedview
     id="base"
     pagecolor="#ffffff"
     bordercolor="#666666"
     borderopacity="1.0"
     inkscape:pageopacity="0.0"
     inkscape:pageshadow="2"
     inkscape:zoom="40.96"
     inkscape:cx="9.4103742"
     inkscape:cy="6.9712627"
     inkscape:document-units="px"
     inkscape:current-layer="layer1"
     showgrid="true"
     inkscape:snap-bbox="true"
     inkscape:bbox-paths="true"
     inkscape:bbox-nodes="true"
     inkscape:snap-bbox-edge-midpoints="true"
     inkscape:snap-bbox-midpoints="true"
     inkscape:object-paths="true"
     inkscape:snap-intersection-paths="true"
     inkscape:object-nodes="true"
     inkscape:snap-smooth-nodes="true"
     inkscape:snap-midpoints="true"
     inkscape:snap-object-midpoints="true"
     inkscape:snap-center="true"
     showguides="true"
     inkscape:guide-bbox="true"
     inkscape:window-width="1920"
     inkscape:window-height="1033"
     inkscape:window-x="-10"
     inkscape:window-y="25"
     inkscape:window-maximized="1"
     inkscape:snap-global="true"
     fit-margin-top="0"
     fit-margin-left="0"
     fit-margin-right="0"
     fit-margin-bottom="0"
     showborder="true"
     inkscape:showpageshadow="false">
    <inkscape:grid
       type="xygrid"
       id="grid3131"
       empspacing="5"
       visible="true"
       enabled="true"
       snapvisiblegridlinesonly="true"
       originx="0.0002329375px"
       originy="10.999838px" />
  </sodipodi:namedview>
  <defs
     id="defs13096" />
  <metadata
     id="metadata13099">
    <rdf:RDF>
      <cc:Work
         rdf:about="">
        <dc:format>image/svg+xml</dc:format>
        <dc:type
           rdf:resource="http://purl.org/dc/dcmitype/StillImage" />
        <dc:title />
      </cc:Work>
    </rdf:RDF>
  </metadata>
  <g
     transform="translate(9398.6162,-5035.9922)"
     id="layer1"
     inkscape:groupmode="layer"
     inkscape:label="Camada 1">
    <g
       transform="matrix(0.03454656,0,0,0.03454656,-9257.2175,5031.4943)"
       id="22"
       inkscape:label="#g3373">
      <g
         id="g3829-5" />
    </g>
    <path
       sodipodi:nodetypes="cccccccccccccccccccccccccccccccccccccccccccccccccccccccccc"
       inkscape:connector-curvature="0"
       id="path2986"
       d="m -9396.6162,5036.9922 0,14 12,0 0,-12 -10,0 0,-1 10,0 0,-1 z m 5.3459,4 1.3445,0 2.0348,5.7411 0.1817,0.3634 0.1453,0.218 0.2181,0.109 0.218,0.036 0.1817,0 0,0.5087 -3.234,0 0,-0.5087 0.3634,0 0.1817,-0.036 0.109,-0.073 0.109,-0.109 0.036,-0.1816 -0.036,-0.2181 -0.036,-0.1816 -0.3634,-0.9811 -2.3619,0 -0.2906,0.8357 -0.073,0.2907 -0.036,0.2544 0.036,0.1816 0.109,0.109 0.109,0.073 0.1817,0.036 0.3997,0 0,0.5087 -2.5436,0 0,-0.5087 0.1454,0 0.218,-0.036 0.1817,-0.109 0.1817,-0.218 0.1816,-0.3634 z m 0.3271,1.0174 -0.073,0.327 -0.1453,0.3634 -0.1091,0.3634 -0.1453,0.3633 -0.5814,1.6352 1.9985,0 -0.5087,-1.5988 -0.109,-0.3271 -0.109,-0.3997 -0.109,-0.3633 z"
       style="color:#000000;fill:#27303a;fill-opacity:0.753280819999999968;fill-rule:nonzero;stroke:none;stroke-width:3.36001492;marker:none;visibility:visible;display:inline;overflow:visible;enable-background:accumulate" />
    <path
       style="font-size:medium;font-style:normal;font-variant:normal;font-weight:normal;font-stretch:normal;text-indent:0;text-align:start;text-decoration:none;line-height:normal;letter-spacing:normal;word-spacing:normal;text-transform:none;direction:ltr;block-progression:tb;writing-mode:lr-tb;text-anchor:start;baseline-shift:baseline;color:#000000;fill:#f1f3f5;fill-opacity:0.90288714000000003;fill-rule:nonzero;stroke:none;stroke-width:2;marker:none;visibility:visible;display:inline;overflow:visible;enable-background:accumulate;font-family:Sans;-inkscape-font-specification:Sans"
       d="M 1 0 L 1 1 L 1 15 L 1 16 L 2 16 L 14 16 L 15 16 L 15 15 L 15 3 L 15 2 L 15 1 L 15 0 L 14 0 L 2 0 L 1 0 z M 2 1 L 14 1 L 14 2 L 4 2 L 4 3 L 14 3 L 14 15 L 2 15 L 2 1 z M 7.34375 5 L 5.25 10.75 L 5.0625 11.09375 L 4.875 11.3125 L 4.6875 11.4375 L 4.46875 11.46875 L 4.34375 11.46875 L 4.34375 11.96875 L 6.875 11.96875 L 6.875 11.46875 L 6.46875 11.46875 L 6.28125 11.4375 L 6.1875 11.34375 L 6.0625 11.25 L 6.03125 11.0625 L 6.0625 10.8125 L 6.15625 10.53125 L 6.4375 9.6875 L 8.8125 9.6875 L 9.15625 10.65625 L 9.1875 10.84375 L 9.25 11.0625 L 9.1875 11.25 L 9.09375 11.34375 L 8.96875 11.4375 L 8.8125 11.46875 L 8.4375 11.46875 L 8.4375 11.96875 L 11.65625 11.96875 L 11.65625 11.46875 L 11.5 11.46875 L 11.28125 11.4375 L 11.0625 11.3125 L 10.90625 11.09375 L 10.71875 10.75 L 8.6875 5 L 7.34375 5 z M 7.6875 6.03125 L 7.78125 6.375 L 7.90625 6.75 L 8 7.15625 L 8.09375 7.46875 L 8.625 9.0625 L 6.625 9.0625 L 7.1875 7.4375 L 7.34375 7.0625 L 7.46875 6.71875 L 7.59375 6.34375 L 7.6875 6.03125 z "
       transform="translate(-9398.6162,5035.9922)"
       id="rect3016" />
  </g>
</svg>
